dist/svgs/new.svg

<svg xmlns="http://www.w3.org/2000/svg" viewBox="0 0 512 512"><path d="M256 0q53 0 100 20t81.5 54.5T492 156t20 100-20 99.5-54.5 81.5-81.5 55-100 20-99.5-20T75 437t-55-81.5T0 256t20-100 55-81.5T156.5 20 256 0zm-97 190h-27v88h-1l-55-88H48v131h27v-88l55 88h29V190zm125 107h-71v-32h64v-23h-64v-28h70v-24h-99v131h100v-24zm180-107h-28l-21 90h-1l-22-90h-27l-23 89h-1l-20-89h-29l34 131h30l22-89 22 89h29z"/></svg>

<?xml version="1.0" encoding="UTF-8" standalone="no"?><svg   xmlns:svg="http://www.w3.org/2000/svg"   xmlns="http://www.w3.org/2000/svg"   version="1.1"   width="512"   height="512"   viewBox="0 0 512 512">  <path     d="M256 0Q309 0 356 20T437.5 74.5T492 156T512 256T492 355.5T437.5 437T356 492T256 512T156.5 492T75 437T20 355.5T0 256T20 156T75 74.5T156.5 20T256 0zM159 190H132V278H131L76 190H48V321H75V233L130 321H159V190zM284 297H213V265H277V242H213V214H283V190H184V321H284V297zM464 190H436L415 280H414L392 190H365L342 279H341L321 190H292L326 321H356L378 232L400 321H429z"     id="new" /></svg>
